X: 408
T: Kelian guanggur mei laopuo
L: 1/8
M: 2/4
K: C
dD2d [I:setbarnb 1]| 
d> e d c | 
dD2d | 
c4 | 
dD2d | 
d> e d c | 
c A F G/ F/ | 
D4 |]

@@@ Tune index: 9282
